T: Trip To Yorkshire, The
M: 9/8
L: 1/8
K: Gmaj
|: G2 g dBG BdB | G2 g dBG FED |\
G2 g d2 G B/c/dB | F2 A D2 d AFD :|
|: ECE DB,D G2 D | E2 C D2 B, AFD |\
ECE DB,D G2 E | F2 d D2 d AFD :|
|: GAB B>AB B>AB | G2 B BAB AFD |\
GAB B>AB B2 D | FGA DFd A2 F :|
